X:742
T:The Mooncoin jig
R:Jig
O:Ireland
B:Krassen O'Neill's p58
B:O'Neill's 1034
S:O'Neill's 1034
Z:Transcription, chords:Mike Long
M:6/8
L:1/8
K:D
"A"cBA AEA|"A"AEA "G"Bcd|"A"cBA Ace|"G"dBG Bcd|\
"A"cBA AEA|"A"AEA "G"Bcd|"A"Ace "G"gfe|"G"dBG Bcd:|
|:"A"cde efg|"D"f/g/af "G"ged|"A"cde efg|"D"f/g/aA "G"Bcd|\
"A"cde efg|"D"afd "G"bge|"D"afd "A"gec|"G"dBG Bcd:|
|:"A"cBA "D"Aaf|"A"ecA "G"Bcd|"A"cBA "G"gfe|"G"dBG Bcd|\
"A"cBA Aaa|"D"Agg Aff|"A"Aee efg|"G"dBG Bcd:|
